!!!!SEGMENT: pl-stab--8a--001-007_dankowski-adalbert--requiem-agnus-dei.krn
!!!cenid: 18xx:3481
!!!COM: Dankowski, Adalbert
!!!COM-rismID: pe30000793
!!!CDT: ~1760-~1836
!!!CNT: Polish
!!!OPR: Requiem
!!!OTL: Agnus Dei
!!!OMV: 007
!!!PDT:
!!!AGN:
!!!SMS-siglum: PL-STAb
!!!SMS-shelfmark: 8a
!!!SMS-shelfwork: 001-007 M
!!!SMS-variant:
!!!SMS-altvar:
!!!NIFC-rismSourceID: 301050561
!!!NIFC-rismChildID: 301050561
!!!NIFC-islandoraID: pl-stab:1903
!!!URL-pdf-islandora: https://repozytorium.nifc.pl/islandora/object/pl-stab%3A1903/datastream/PDF/view
!!!URL-scan: https://polish.musicsources.pl/pl/lokalizacje/galeria/rekopisy/4640 @EN{Scan on Polish Music Sources Website} @PL{Skany w portalu Dziedzictwo Muzyki Polskiej w otwartym dostępie}
!!!IIIF:
!!!ONB-nifc: UWAGA: części Requiem: 1. Requiem aeternam, 2. Kyrie, 3. Dies irae, 4. Domine Jesu Christe, 5. Sanctus, 6. Benedictus, 7. Agnus Dei, 8. Lux aeterna
!!!OMD: Andante
!!!AIN: 1 alto 1 bass 2 clars 2 cor 1 organ 1 soprn 1 tenor 2 violn
!!!key: E-
**kern	**fba	**dynam	**kern	**dynam	**kern	**dynam	**kern	**text	**kern	**text	**kern	**text	**kern	**text	**kern	**kern	**kern	**dynam	**kern	**dynam
*part11	*part11	*part11	*part10	*part10	*part9	*part9	*part8	*part8	*part7	*part7	*part6	*part6	*part5	*part5	*part4	*part3	*part2	*part2	*part1	*part1
*staff11	*staff11	*	*staff10	*	*staff9	*	*staff8	*staff8	*staff7	*staff7	*staff6	*staff6	*staff5	*staff5	*staff4	*staff3	*staff2	*	*staff1	*
*I"Organo	*	*	*I"Violino Secundo	*	*I"Violino Primo	*	*I"Basso	*	*I"Tenore	*	*I"Alto	*	*I"Canto	*	*I"Cornu Secondo Ex Es	*I"Cornu Primo Ex Dis	*I"Clarinetto Secundo in B	*	*I"Clarinetto Primo in B	*
*I'org	*	*	*I'vl 2	*	*I'vl 1	*	*I'B	*	*I'T	*	*I'A	*	*I'S	*	*I'cor 2	*I'cor 1	*I'cl 2	*	*I'cl 1	*
*Iorgan	*	*	*Ivioln	*	*Ivioln	*	*Ibass	*	*Itenor	*	*Ialto	*	*Isoprn	*	*Icor	*Icor	*Iclars	*	*Iclars	*
*ICklav	*	*	*ICstr	*	*ICstr	*	*ICvox	*	*ICvox	*	*ICvox	*	*ICvox	*	*ICbras	*ICbras	*ICww	*	*ICww	*
*IGcont	*	*	*	*	*	*	*	*	*	*	*	*	*	*	*	*	*	*	*	*
*	*	*	*mI"Violino II	*	*mI"Violino I	*	*	*	*	*	*	*	*mI"Soprano	*	*mI"Corno II in Eb	*mI"Corno I in Eb	*mI"Clarinetto II in Bb	*	*mI"Clarinetto I in Bb	*
*clefF4	*	*	*clefG2	*	*clefG2	*	*clefF4	*	*clefC4	*	*clefC3	*	*clefC1	*	*clefG2	*clefG2	*clefG2	*	*clefG2	*
*	*	*	*	*	*	*	*	*	*	*	*	*	*	*	*ITrd5c9	*ITrd5c9	*ITrd1c2	*	*ITrd1c2	*
*k[b-e-a-]	*	*	*k[b-e-a-]	*	*k[b-e-a-]	*	*k[b-e-a-]	*	*k[b-e-a-]	*	*k[b-e-a-]	*	*k[b-e-a-]	*	*k[b-e-a-]	*k[b-e-a-]	*k[b-e-a-]	*	*k[b-e-a-]	*
*E-:	*	*	*E-:	*	*E-:	*	*E-:	*	*E-:	*	*E-:	*	*E-:	*	*E-:	*E-:	*E-:	*	*E-:	*
*M2/4	*	*	*M2/4	*	*M2/4	*	*M2/4	*	*M2/4	*	*M2/4	*	*M2/4	*	*M2/4	*M2/4	*M2/4	*	*M2/4	*
=1	=1	=1	=1	=1	=1	=1	=1	=1	=1	=1	=1	=1	=1	=1	=1	=1	=1	=1	=1	=1
!	!	!	!LO:MO:mod=!LO&colon;TX&colon;i&colon;t=Solo	!	!LO:MO:null:mod=!LO&colon;TX&colon;i&colon;t=Solo	!	!	!	!	!	!	!	!	!	!	!	!	!	!	!
!LO:TX:a:i:t=Solo	!	!	!LO:TX:a:i:t=solo	!	!	!	!	!	!	!	!LO:TX:a:i:t=Solo	!	!LO:TX:b:i:t=alto solo:mod=	!	!	!	!	!	!	!
!LO:TX:a:mod=:t=andante	!	!	!LO:TX:a:i:t=andante:mod=	!	!LO:TX:a:mod=:t=andante	!	!LO:TX:a:mod=:t=andante	!	!LO:TX:a:i:t=andante:mod=	!	!LO:TX:a:i:t=andante:mod=	!	!LO:TX:a:i:t=Andante:mod=	!	!LO:TX:a:mod=:t=andante	!LO:TX:a:mod=:t=andante	!LO:TX:a:mod=:t=andante	!	!LO:TX:a:mod=:t=andante	!
8E-\	.	.	16r	.	16r	.	0r	.	0r	.	4.g\	A-	0r	.	0r	0r	0r	.	0r	.
!	!	!	!	!LO:MO:null:mod=!LO&colon;DY&colon;ed=brack	!	!	!	!	!	!	!	!	!	!	!	!	!	!	!	!
!	!	!	!	!	!	!	!	!	!	!	!	!	!	!	!	!	!	!	!	!
!	!	!	!	!LO:MO:null:mod=p	!	!LO:DY:a:t=p&colon;	!	!	!	!	!	!	!	!	!	!	!	!	!	!
.	.	.	16g|</LL	.	16b-|</LL	p	.	.	.	.	.	.	.	.	.	.	.	.	.	.
!	!	!	!	!	!LO:SIC:v:s=(16a-	!	!	!	!	!	!	!	!	!	!	!	!	!	!	!
8r	.	.	(16f/	.	(16b-/	.	.	.	.	.	.	.	.	.	.	.	.	.	.	.
!	!	!	!	!	!LO:SIC:v:s=16gJJ)	!	!	!	!	!	!	!	!	!	!	!	!	!	!	!
.	.	.	16e-/JJ)	.	16a-/JJ)	.	.	.	.	.	.	.	.	.	.	.	.	.	.	.
8E-\	.	.	16r	.	16r	.	.	.	.	.	.	.	.	.	.	.	.	.	.	.
.	.	.	16g|</LL	.	16b-|</LL	.	.	.	.	.	.	.	.	.	.	.	.	.	.	.
8r	.	.	(16f/	.	(16a-/	.	.	.	.	.	16a-\LL	-gnus	.	.	.	.	.	.	.	.
.	.	.	16e-/JJ)	.	16g/JJ)	.	.	.	.	.	16b-\JJ	.	.	.	.	.	.	.	.	.
=2	=2	=2	=2	=2	=2	=2	=2	=2	=2	=2	=2	=2	=2	=2	=2	=2	=2	=2	=2	=2
8A-\	6	.	16r	.	16r	.	.	.	.	.	16cc\LL	De-	.	.	.	.	.	.	.	.
.	.	.	16a-|</LL	.	16cc|</LL	.	.	.	.	.	16a-\JJ	.	.	.	.	.	.	.	.	.
8r	.	.	(16g/	.	(16b-/	.	.	.	.	.	8a-\	-i	.	.	.	.	.	.	.	.
.	.	.	16f/JJ)	.	16a-/JJ)	.	.	.	.	.	.	.	.	.	.	.	.	.	.	.
8A-\	_	.	16r	.	16r	.	.	.	.	.	8r	.	.	.	.	.	.	.	.	.
.	.	.	16a-|</LL	.	16cc|</LL	.	.	.	.	.	.	.	.	.	.	.	.	.	.	.
8r	x	.	(16g/	.	(16b-/	.	.	.	.	.	8a-\	qui	.	.	.	.	.	.	.	.
.	.	.	16f/JJ)	.	16a-/JJ)	.	.	.	.	.	.	.	.	.	.	.	.	.	.	.
=3	=3	=3	=3	=3	=3	=3	=3	=3	=3	=3	=3	=3	=3	=3	=3	=3	=3	=3	=3	=3
8B-\	.	.	16r	.	16r	.	.	.	.	.	8f\	tol-	.	.	.	.	.	.	.	.
.	.	.	16f|</LL	.	16a-|</LL	.	.	.	.	.	.	.	.	.	.	.	.	.	.	.
8r	.	.	(16e-/	.	(16g/	.	.	.	.	.	4f\	-lis	.	.	.	.	.	.	.	.
.	.	.	16d/JJ)	.	16f/JJ)	.	.	.	.	.	.	.	.	.	.	.	.	.	.	.
8B-\	.	.	16r	.	16r	.	.	.	.	.	.	.	.	.	.	.	.	.	.	.
.	.	.	16f|</LL	.	16a-|</LL	.	.	.	.	.	.	.	.	.	.	.	.	.	.	.
8r	.	.	(16e-/	.	(16g/	.	.	.	.	.	16g\LL	pec-	.	.	.	.	.	.	.	.
.	.	.	16d/JJ)	.	16f/JJ)	.	.	.	.	.	16a-\JJ	.	.	.	.	.	.	.	.	.
=4	=4	=4	=4	=4	=4	=4	=4	=4	=4	=4	=4	=4	=4	=4	=4	=4	=4	=4	=4	=4
8E-\	.	.	16r	.	16r	.	.	.	.	.	16b-\LL	-ca-	.	.	.	.	.	.	.	.
.	.	.	16g|</LL	.	16b-|</LL	.	.	.	.	.	16g\JJ	.	.	.	.	.	.	.	.	.
8r	.	.	(16f/	.	(16a-/	.	.	.	.	.	8g\	-ta	.	.	.	.	.	.	.	.
.	.	.	16e-/JJ)	.	16g/JJ)	.	.	.	.	.	.	.	.	.	.	.	.	.	.	.
8E-\	.	.	16r	.	16r	.	.	.	.	.	8r	.	.	.	.	.	.	.	.	.
.	.	.	16g|</LL	.	16b-|</LL	.	.	.	.	.	.	.	.	.	.	.	.	.	.	.
8r	.	.	(16f/	.	(16a-/	.	.	.	.	.	8b-\	qui	.	.	.	.	.	.	.	.
.	.	.	16e-/JJ)	.	16g/JJ)	.	.	.	.	.	.	.	.	.	.	.	.	.	.	.
!	!	!	!LO:LB:g=original	!	!	!	!	!	!	!	!	!	!	!	!	!	!	!	!	!
=5	=5	=5	=5	=5	=5	=5	=5	=5	=5	=5	=5	=5	=5	=5	=5	=5	=5	=5	=5	=5
8E-\	.	.	16r	.	16r	.	0r	.	0r	.	8g\	tol-	0r	.	0r	0r	0r	.	0r	.
.	.	.	16g|</LL	.	16b-|</LL	.	.	.	.	.	.	.	.	.	.	.	.	.	.	.
8r	.	.	(16f/	.	(16a-/	.	.	.	.	.	4g\	-lis	.	.	.	.	.	.	.	.
.	.	.	16e-/JJ)	.	16g/JJ)	.	.	.	.	.	.	.	.	.	.	.	.	.	.	.
!	!	!	!	!	!LO:LB:g=original	!	!	!	!	!	!	!	!	!	!	!	!	!	!	!
!!LO:MO:ori
=-	=-	=-	=-	=-	=-	=-	=-	=-	=-	=-	=-	=-	=-	=-	=-	=-	=-	=-	=-	=-
!!LO:MO:end
8E-\	.	.	16r	.	16r	.	.	.	.	.	.	.	.	.	.	.	.	.	.	.
.	.	.	16g|</LL	.	16b-|</LL	.	.	.	.	.	.	.	.	.	.	.	.	.	.	.
8r	.	.	(16f/	.	(16a-/	.	.	.	.	.	16a-\LL	qui	.	.	.	.	.	.	.	.
.	.	.	16e-/JJ)	.	16g/JJ)	.	.	.	.	.	16g\JJ	.	.	.	.	.	.	.	.	.
!	!	!	!	!	!	!	!	!	!	!	!LO:LB:g=original	!	!	!	!	!	!	!	!	!
=6	=6	=6	=6	=6	=6	=6	=6	=6	=6	=6	=6	=6	=6	=6	=6	=6	=6	=6	=6	=6
8BB-/	.	.	16r	.	16r	.	.	.	.	.	8f\	tol-	.	.	.	.	.	.	.	.
.	.	.	16f|</LL	.	16a-|</LL	.	.	.	.	.	.	.	.	.	.	.	.	.	.	.
8r	.	.	(16e-/	.	(16g/	.	.	.	.	.	4f\	-lis	.	.	.	.	.	.	.	.
.	.	.	16d/JJ)	.	16f/JJ)	.	.	.	.	.	.	.	.	.	.	.	.	.	.	.
8BB-/	.	.	16r	.	16r	.	.	.	.	.	.	.	.	.	.	.	.	.	.	.
.	.	.	16f|</LL	.	16a-|</LL	.	.	.	.	.	.	.	.	.	.	.	.	.	.	.
8r	.	.	(16e-/	.	(16g/	.	.	.	.	.	16e-\LL	pec-	.	.	.	.	.	.	.	.
.	.	.	16d/JJ)	.	16f/JJ)	.	.	.	.	.	16f\JJ	.	.	.	.	.	.	.	.	.
=7	=7	=7	=7	=7	=7	=7	=7	=7	=7	=7	=7	=7	=7	=7	=7	=7	=7	=7	=7	=7
8E-\	.	.	16r	.	16r	.	.	.	.	.	4g\	-ca-	.	.	.	.	.	.	.	.
.	.	.	16e-|</LL	.	16g|</LL	.	.	.	.	.	.	.	.	.	.	.	.	.	.	.
8r	.	.	(16d/	.	(16f/	.	.	.	.	.	.	.	.	.	.	.	.	.	.	.
.	.	.	16e-/JJ)	.	16g/JJ)	.	.	.	.	.	.	.	.	.	.	.	.	.	.	.
8C/	6\ 3	.	16r	.	16r	.	.	.	.	.	4an\	-ta	.	.	.	.	.	.	.	.
!	!	!	!LO:SIC:s=16e-LL|	!	!	!	!	!	!	!	!	!	!	!	!	!	!	!	!	!
.	.	.	16e-/LL	.	16an|</LL	.	.	.	.	.	.	.	.	.	.	.	.	.	.	.
!	!	!	!LO:SIC:s=(16c	!	!	!	!	!	!	!	!	!	!	!	!	!	!	!	!	!
8r	.	.	16c/	.	(16g/	.	.	.	.	.	.	.	.	.	.	.	.	.	.	.
!	!	!	!LO:SIC:s=16e-JJ)	!	!	!	!	!	!	!	!	!	!	!	!	!	!	!	!	!
.	.	.	16e-/JJ	.	16a/JJ)	.	.	.	.	.	.	.	.	.	.	.	.	.	.	.
=8	=8	=8	=8	=8	=8	=8	=8	=8	=8	=8	=8	=8	=8	=8	=8	=8	=8	=8	=8	=8
8BB-/L	.	.	16d/LL	.	16b-/LL	.	.	.	.	.	8b-\	mun-	.	.	.	.	.	.	.	.
.	.	.	16B-/	.	16d/	.	.	.	.	.	.	.	.	.	.	.	.	.	.	.
8BB-/J	.	.	16An/	.	16c/	.	.	.	.	.	8b-\	-di	.	.	.	.	.	.	.	.
.	.	.	16B-/JJ	.	16d/JJ	.	.	.	.	.	.	.	.	.	.	.	.	.	.	.
!	!	!	!	!LO:MO:mod=!null:null	!	!LO:MO:mod=!null:null	!	!	!	!	!	!	!	!	!	!	!	!	!	!
!	!	!	!	!LO:HP:a:t=cres	!	!LO:HP:a:t=cres.	!	!	!	!	!	!	!	!	!	!	!	!	!	!
4r	.	.	16c/LL	<	16e-/LL	<	.	.	.	.	4r	.	.	.	.	.	.	.	.	.
.	.	.	16d/	.	16f/	.	.	.	.	.	.	.	.	.	.	.	.	.	.	.
.	.	.	16e-/	.	16g/	.	.	.	.	.	.	.	.	.	.	.	.	.	.	.
.	.	.	16c/JJ	.	16an/JJ	.	.	.	.	.	.	.	.	.	.	.	.	.	.	.
!LO:LB:g=original	!	!	!	!	!	!	!	!	!	!	!	!	!	!	!	!	!	!	!	!
=9	=9	=9	=9	=9	=9	=9	=9	=9	=9	=9	=9	=9	=9	=9	=9	=9	=9	=9	=9	=9
!LO:TX:a:i:t=Tutti	!	!	!	!LO:DY:a:t=for	!	!LO:DY:a:t=for	!	!	!	!	!	!	!	!	!	!	!	!	!	!
8B-\L	.	.	8d/L	f	16b-/LL	f	4B-\	Do-	4f\	Do-	4b-\	Do-	4dd\	Do-	4B-/	4f\	4b-\	.	4dd\	.
.	.	.	.	.	16d/J	.	.	.	.	.	.	.	.	.	.	.	.	.	.	.
8B-\	.	.	8d/J	.	8d/J	.	.	.	.	.	.	.	.	.	.	.	.	.	.	.
8B-\	.	.	16r	.	16r	.	4B-\	-na	4f\	-na	4b-\	-na	4dd\	-na	4B-/	4f\	4b-\	.	4dd\	.
.	.	.	16d/LL	.	16d/LL	.	.	.	.	.	.	.	.	.	.	.	.	.	.	.
8B-\J	.	.	16e-/	.	16e-/	.	.	.	.	.	.	.	.	.	.	.	.	.	.	.
.	.	.	16f/JJ	.	16f/JJ	.	.	.	.	.	.	.	.	.	.	.	.	.	.	.
=10	=10	=10	=10	=10	=10	=10	=10	=10	=10	=10	=10	=10	=10	=10	=10	=10	=10	=10	=10	=10
*2\right	*	*	*	*	*	*	*	*	*	*	*	*	*	*	*	*	*	*	*	*
*tremolo	*	*	*	*	*	*	*	*	*	*	*	*	*	*	*	*	*	*	*	*
8G\L	.	.	16e-/LL	.	16e-/LL	.	4G\	e-	4g\	e-	4b-\	e-	4dd\	e-	4B-/	4b-\	4b-\	.	4dd\	.
.	.	.	16d/J	.	16d/J	.	.	.	.	.	.	.	.	.	.	.	.	.	.	.
8G\	.	.	8d/J	.	8d/J	.	.	.	.	.	.	.	.	.	.	.	.	.	.	.
8G\	.	.	16r	.	16r	.	4G\	-is	4g\	-is	4b-\	-is	4dd\	-is	4B-/	4b-\	4b-\	.	4dd\	.
.	.	.	16B-/LL	.	16d/LL	.	.	.	.	.	.	.	.	.	.	.	.	.	.	.
8G\J	.	.	16An/	.	16c/	.	.	.	.	.	.	.	.	.	.	.	.	.	.	.
.	.	.	16B-/JJ	.	16d/JJ	.	.	.	.	.	.	.	.	.	.	.	.	.	.	.
!	!	!	!LO:LB:g=original	!	!	!	!	!	!	!	!	!	!	!	!	!	!	!	!	!
=11	=11	=11	=11	=11	=11	=11	=11	=11	=11	=11	=11	=11	=11	=11	=11	=11	=11	=11	=11	=11
*	*	*	*	*	*	*	*	*ij	*	*ij	*	*	*	*ij	*	*	*	*	*	*
8E-\L	6	.	16B-/LL	.	16d/LL	.	4E-\	e-	4g\	e-	4cc\	e-	4ee-\	e-	4e-\	4g\	4cc\	.	4ee-\	.
.	.	.	16c/J	.	16e-/J	.	.	.	.	.	.	.	.	.	.	.	.	.	.	.
8E-\	.	.	8c/J	.	8e-/J	.	.	.	.	.	.	.	.	.	.	.	.	.	.	.
!	!	!	!	!	!LO:LB:g=original	!	!	!	!	!	!	!	!	!	!	!	!	!	!	!
!!LO:MO:ori
=-	=-	=-	=-	=-	=-	=-	=-	=-	=-	=-	=-	=-	=-	=-	=-	=-	=-	=-	=-	=-
!!LO:MO:end
8E-\	.	.	16r	.	16r	.	4E-\	-is	4g\	-is	4cc\	-is	4ee-\	-is	4e-\	4g\	4cc\	.	4ee-\	.
*	*	*	*	*	*	*	*	*Xij	*	*Xij	*	*	*	*Xij	*	*	*	*	*	*
.	.	.	16e-/LL	.	16g/LL	.	.	.	.	.	.	.	.	.	.	.	.	.	.	.
8E-\J	.	.	16d/	.	16f/	.	.	.	.	.	.	.	.	.	.	.	.	.	.	.
.	.	.	16c/JJ	.	16e-/JJ	.	.	.	.	.	.	.	.	.	.	.	.	.	.	.
*Xtremolo	*	*	*	*	*	*	*	*	*	*	*	*	*	*	*	*	*	*	*	*
=12	=12	=12	=12	=12	=12	=12	=12	=12	=12	=12	=12	=12	=12	=12	=12	=12	=12	=12	=12	=12
!LO:TX:t=P:problem=mixed beam	!	!	!	!	!	!	!	!	!	!	!	!	!	!	!	!	!	!	!	!
8F\L	4	.	16c/LL	.	16e-/LL	.	4F\	Re-	4f\	Re-	4b-\	Re-	4dd\	Re-	4f\	4f\	4b-\	.	4dd\	.
.	.	.	16B-/	.	16d/	.	.	.	.	.	.	.	.	.	.	.	.	.	.	.
8F\	.	.	16B-/	.	16d/	.	.	.	.	.	.	.	.	.	.	.	.	.	.	.
.	.	.	16d/JJ	.	16f/JJ	.	.	.	.	.	.	.	.	.	.	.	.	.	.	.
8FF/	n	.	16d/LL	.	16f/LL	.	4F\	-qui-	4f\	-qui-	4an\	-qui-	4cc\	-qui-	4f\	4f\	4a\	.	4cc\	.
.	.	.	16c/	.	16e-/	.	.	.	.	.	.	.	.	.	.	.	.	.	.	.
8FF/J	.	.	16B-/	.	16d/	.	.	.	.	.	.	.	.	.	.	.	.	.	.	.
.	.	.	16An/JJ	.	16c/JJ	.	.	.	.	.	.	.	.	.	.	.	.	.	.	.
=13	=13	=13	=13	=13	=13	=13	=13	=13	=13	=13	=13	=13	=13	=13	=13	=13	=13	=13	=13	=13
!	!	!	!	!	!	!	!	!	!	!	!	!	!	!	!	!	!	!	!LO:MO:null:mod=!LO&colon;TX&colon;i&colon;t=Solo	!
!LO:TX:a:i:t=Solo	!	!LO:DY:a:t=p.	!	!LO:DY:a:t=p.	!	!LO:DY:a:t=p.	!	!	!	!	!	!	!	!	!	!	!LO:TX:a:i:t=Solo	!	!	!
8BB-/	.	p	16B-/LL	p	16d/LL	p	4BB-/	-em	4f\	-em	4b-\	-em	4dd\	-em	4B-/	4f\	(8.b-\L	.	(8.dd\L	.
.	.	.	16B-/	.	16d/	.	.	.	.	.	.	.	.	.	.	.	.	.	.	.
8r	.	.	16d/	.	16f/	.	.	.	.	.	.	.	.	.	.	.	.	.	.	.
.	.	.	16B-/JJ	.	16d/JJ	.	.	.	.	.	.	.	.	.	.	.	16dd\Jk)	.	16ff\Jk)	.
8E-\	6	.	16r	.	16r	.	4r	.	4r	.	4r	.	4r	.	4r	4r	(8.cc\L	.	(8.ee-\L	.
.	.	.	16c/LL	.	16e-/LL	.	.	.	.	.	.	.	.	.	.	.	.	.	.	.
8r	.	.	16e-/	.	16g/	.	.	.	.	.	.	.	.	.	.	.	.	.	.	.
.	.	.	16c/JJ	.	16e-/JJ	.	.	.	.	.	.	.	.	.	.	.	16ee-\Jk)	.	16gg\Jk)	.
=14	=14	=14	=14	=14	=14	=14	=14	=14	=14	=14	=14	=14	=14	=14	=14	=14	=14	=14	=14	=14
!	!	!	!	!	!	!	!	!	!LO:TX:a:t=11:mod=	!	!	!	!	!	!	!	!	!	!	!
8F\	n	.	16r	.	16r	.	0r	.	0r	.	0r	.	1r	.	0r	0r	(8.a\L	.	(8.cc\L	.
.	.	.	16An/LL	.	16c/LL	.	.	.	.	.	.	.	.	.	.	.	.	.	.	.
8r	.	.	16c/	.	16e-/	.	.	.	.	.	.	.	.	.	.	.	.	.	.	.
.	.	.	16A/JJ	.	16c/JJ	.	.	.	.	.	.	.	.	.	.	.	16cc\Jk)	.	16ee-\Jk)	.
!	!	!	!	!	!	!	!	!	!	!	!	!	!	!	!	!	!LO:MO:mod=(8.b-L	!	!LO:MO:mod=(8.ddL	!
8BB-/	.	.	16r	.	16r	.	.	.	.	.	.	.	.	.	.	.	8b-\	.	8dd|>\	.
.	.	.	16B-/LL	.	16d/LL	.	.	.	.	.	.	.	.	.	.	.	.	.	.	.
!	!	!	!	!	!	!	!	!	!	!	!	!	!	!	!	!	!LO:MO:null:mod=.	!	!LO:MO:null:mod=.	!
8r	.	.	16d/	.	16f/	.	.	.	.	.	.	.	.	.	.	.	16r	.	16r	.
!	!	!	!	!	!	!	!	!	!	!	!	!	!	!	!	!	!LO:MO:mod=16dd)J	!	!LO:MO:mod=16ff)J	!
.	.	.	16B-/JJ	.	16d/JJ	.	.	.	.	.	.	.	.	.	.	.	16dd\	.	16ff|>\	.
=15	=15	=15	=15	=15	=15	=15	=15	=15	=15	=15	=15	=15	=15	=15	=15	=15	=15	=15	=15	=15
!	!	!	!	!	!	!	!	!	!	!	!	!	!	!	!	!	!	!	!LO:SIC:s=(8.ggL	!
8E-\	6	.	16r	.	16r	.	.	.	.	.	.	.	.	.	.	.	(8.ee-\L	.	8.gg\L	.
.	.	.	16c/LL	.	16e-/LL	.	.	.	.	.	.	.	.	.	.	.	.	.	.	.
8r	.	.	16e-/	.	16g/	.	.	.	.	.	.	.	.	.	.	.	.	.	.	.
!	!	!	!	!	!	!	!	!	!	!	!	!	!	!	!	!	!	!	!LO:SIC:s=16ee-Jk)	!
.	.	.	16c/JJ	.	16e-/JJ	.	.	.	.	.	.	.	.	.	.	.	16cc\Jk)	.	16ee-\Jk	.
!LO:TX:t=P:problem=mixed beam	!	!	!	!	!	!	!	!	!	!	!	!	!	!	!	!	!	!	!	!
8F\L	4	.	8B-/L	.	8d/L	.	.	.	.	.	.	.	.	.	.	.	(16dd\LL	.	(16ff\LL	.
.	.	.	.	.	.	.	.	.	.	.	.	.	.	.	.	.	16b-\)	.	16dd\)	.
8FF/J	3	.	8An/J	.	8c/J	.	.	.	.	.	.	.	.	.	.	.	(16cc\	.	(16ee-\	.
.	.	.	.	.	.	.	.	.	.	.	.	.	.	.	.	.	16a\JJ)	.	16cc\JJ)	.
!	!	!	!	!	!	!	!	!	!	!	!	!	!	!	!	!	!LO:LB:g=original	!	!LO:LB:g=original	!
=16	=16	=16	=16	=16	=16	=16	=16	=16	=16	=16	=16	=16	=16	=16	=16	=16	=16	=16	=16	=16
8BB-/L	.	.	8B-/L	.	8d/L	.	.	.	.	.	.	.	2r	.	.	.	8b-\L	.	8dd\L	.
8BB-/	.	.	8B-/	.	8d/	.	.	.	.	.	.	.	.	.	.	.	8b-\	.	8dd\	.
8BB-/J	.	.	8B-/J	.	8d/J	.	.	.	.	.	.	.	.	.	.	.	8b-\J	.	8dd\J	.
8r	.	.	8r	.	8r	.	.	.	.	.	.	.	.	.	.	.	8r	.	8r	.
!	!	!	!LO:LB:g=original	!	!	!	!	!	!	!	!	!	!	!	!	!	!	!	!	!
=17	=17	=17	=17	=17	=17	=17	=17	=17	=17	=17	=17	=17	=17	=17	=17	=17	=17	=17	=17	=17
!	!	!LO:DY:a:t=p.	!	!	!	!	!	!	!	!	!	!	!LO:TX:a:i:t=Solo	!	!	!	!	!	!	!
8BB-/	.	p	16r	.	16r	.	.	.	.	.	.	.	4.dd\	A-	.	.	0r	.	0r	.
.	.	.	16d|</LL	.	16f|</LL	.	.	.	.	.	.	.	.	.	.	.	.	.	.	.
8r	.	.	(16c/	.	(16e-/	.	.	.	.	.	.	.	.	.	.	.	.	.	.	.
.	.	.	16B-/JJ)	.	16d/JJ)	.	.	.	.	.	.	.	.	.	.	.	.	.	.	.
!	!	!	!	!	!LO:LB:g=original	!	!	!	!	!	!	!	!	!	!	!	!	!	!	!
!!LO:MO:ori
=-	=-	=-	=-	=-	=-	=-	=-	=-	=-	=-	=-	=-	=-	=-	=-	=-	=-	=-	=-	=-
!!LO:MO:end
8BB-/	.	.	16r	.	16r	.	.	.	.	.	.	.	.	.	.	.	.	.	.	.
.	.	.	16d|</LL	.	16f|</LL	.	.	.	.	.	.	.	.	.	.	.	.	.	.	.
8r	.	.	(16c/	.	(16e-/	.	.	.	.	.	.	.	16ee-\LL	-gnus	.	.	.	.	.	.
.	.	.	16B-/JJ)	.	16d/JJ)	.	.	.	.	.	.	.	16ff\JJ	.	.	.	.	.	.	.
=18	=18	=18	=18	=18	=18	=18	=18	=18	=18	=18	=18	=18	=18	=18	=18	=18	=18	=18	=18	=18
8E-\	6	.	16r	.	16r	.	0r	.	0r	.	0r	.	16gg\LL	De-	0r	0r	.	.	.	.
.	.	.	16e-|</LL	.	16g|</LL	.	.	.	.	.	.	.	16ee-\JJ	.	.	.	.	.	.	.
8r	.	.	(16d/	.	(16f/	.	.	.	.	.	.	.	8ee-\	-i	.	.	.	.	.	.
.	.	.	16c/JJ)	.	16e-/JJ)	.	.	.	.	.	.	.	.	.	.	.	.	.	.	.
8E-\	_	.	16r	.	16r	.	.	.	.	.	.	.	8r	.	.	.	.	.	.	.
.	.	.	16e-|</LL	.	16g|</LL	.	.	.	.	.	.	.	.	.	.	.	.	.	.	.
8r	x	.	(16d/	.	(16f/	.	.	.	.	.	.	.	8ee-\	qui	.	.	.	.	.	.
.	.	.	16c/JJ)	.	16e-/JJ)	.	.	.	.	.	.	.	.	.	.	.	.	.	.	.
!	!	!	!	!	!	!	!	!	!	!	!	!	!LO:LB:g=original	!	!	!	!	!	!	!
=19	=19	=19	=19	=19	=19	=19	=19	=19	=19	=19	=19	=19	=19	=19	=19	=19	=19	=19	=19	=19
8F\	n	.	16r	.	16r	.	.	.	.	.	.	.	8cc\	tol-	.	.	.	.	.	.
.	.	.	16c|</LL	.	16e-|</LL	.	.	.	.	.	.	.	.	.	.	.	.	.	.	.
8r	.	.	(16B-/	.	(16d/	.	.	.	.	.	.	.	4cc\	-lis	.	.	.	.	.	.
.	.	.	16An/JJ)	.	16c/JJ)	.	.	.	.	.	.	.	.	.	.	.	.	.	.	.
!LO:LB:g=original	!	!	!	!	!	!	!	!	!	!	!	!	!	!	!	!	!	!	!	!
!!LO:MO:ori
=-	=-	=-	=-	=-	=-	=-	=-	=-	=-	=-	=-	=-	=-	=-	=-	=-	=-	=-	=-	=-
!!LO:MO:end
8F\	n	.	16r	.	16r	.	.	.	.	.	.	.	.	.	.	.	.	.	.	.
.	.	.	16c|</LL	.	16e-|</LL	.	.	.	.	.	.	.	.	.	.	.	.	.	.	.
8r	.	.	(16B-/	.	(16d/	.	.	.	.	.	.	.	16dd\LL	pec-	.	.	.	.	.	.
.	.	.	16A/JJ)	.	16c/JJ)	.	.	.	.	.	.	.	16ee-\JJ	.	.	.	.	.	.	.
=20	=20	=20	=20	=20	=20	=20	=20	=20	=20	=20	=20	=20	=20	=20	=20	=20	=20	=20	=20	=20
8BB-/	.	.	16r	.	16r	.	.	.	.	.	.	.	16ff\LL	-ca-	.	.	.	.	.	.
.	.	.	16d|</LL	.	16f|</LL	.	.	.	.	.	.	.	16dd\JJ	.	.	.	.	.	.	.
8r	.	.	(16c/	.	(16e-/	.	.	.	.	.	.	.	8dd\	-ta	.	.	.	.	.	.
.	.	.	16B-/JJ)	.	16d/JJ)	.	.	.	.	.	.	.	.	.	.	.	.	.	.	.
8BB-/	.	.	16r	.	16r	.	.	.	.	.	.	.	8r	.	.	.	.	.	.	.
.	.	.	16d|</LL	.	16f|</LL	.	.	.	.	.	.	.	.	.	.	.	.	.	.	.
8r	.	.	(16c/	.	(16e-/	.	.	.	.	.	.	.	8ff\	qui	.	.	.	.	.	.
.	.	.	16B-/JJ)	.	16d/JJ)	.	.	.	.	.	.	.	.	.	.	.	.	.	.	.
=21	=21	=21	=21	=21	=21	=21	=21	=21	=21	=21	=21	=21	=21	=21	=21	=21	=21	=21	=21	=21
8BBn/	6 5	.	16r	.	16r	.	.	.	.	.	.	.	8dd\	tol-	.	.	0r	.	0r	.
.	.	.	16d|</LL	.	16f|</LL	.	.	.	.	.	.	.	.	.	.	.	.	.	.	.
8r	.	.	(16c/	.	(16e-/	.	.	.	.	.	.	.	4dd\	-lis	.	.	.	.	.	.
.	.	.	16Bn/JJ)	.	16d/JJ)	.	.	.	.	.	.	.	.	.	.	.	.	.	.	.
8BB/	_ _	.	16r	.	16r	.	.	.	.	.	.	.	.	.	.	.	.	.	.	.
.	.	.	16d|</LL	.	16f|</LL	.	.	.	.	.	.	.	.	.	.	.	.	.	.	.
8r	x x	.	(16c/	.	(16e-/	.	.	.	.	.	.	.	16gg\LL	qui	.	.	.	.	.	.
.	.	.	16B/JJ)	.	16d/JJ)	.	.	.	.	.	.	.	16ff\JJ	.	.	.	.	.	.	.
=22	=22	=22	=22	=22	=22	=22	=22	=22	=22	=22	=22	=22	=22	=22	=22	=22	=22	=22	=22	=22
8C/	.	.	16r	.	16r	.	1r	.	1r	.	1r	.	8ee-\	tol-	1r	1r	.	.	.	.
.	.	.	16e-|</LL	.	16g|</LL	.	.	.	.	.	.	.	.	.	.	.	.	.	.	.
8r	.	.	(16d/	.	(16f/	.	.	.	.	.	.	.	4ee-\	-lis	.	.	.	.	.	.
.	.	.	16c/JJ)	.	16e-/JJ)	.	.	.	.	.	.	.	.	.	.	.	.	.	.	.
!	!	!	!LO:LB:g=original	!	!LO:LB:g=original	!	!	!	!	!	!	!	!	!	!	!	!	!	!	!
!!LO:MO:ori
=-	=-	=-	=-	=-	=-	=-	=-	=-	=-	=-	=-	=-	=-	=-	=-	=-	=-	=-	=-	=-
!!LO:MO:end
8C/	.	.	16r	.	16r	.	.	.	.	.	.	.	.	.	.	.	.	.	.	.
.	.	.	16e-|</LL	.	16g|</LL	.	.	.	.	.	.	.	.	.	.	.	.	.	.	.
8r	.	.	(16d/	.	(16f/	.	.	.	.	.	.	.	8ee-\	qui	.	.	.	.	.	.
.	.	.	16c/JJ)	.	16e-/JJ)	.	.	.	.	.	.	.	.	.	.	.	.	.	.	.
=23	=23	=23	=23	=23	=23	=23	=23	=23	=23	=23	=23	=23	=23	=23	=23	=23	=23	=23	=23	=23
8AAn/	5	.	16r	.	16r	.	.	.	.	.	.	.	8cc\	tol-	.	.	.	.	.	.
.	.	.	16c|</LL	.	16e-|</LL	.	.	.	.	.	.	.	.	.	.	.	.	.	.	.
8r	.	.	(16Bn/	.	(16d/	.	.	.	.	.	.	.	16cc\	-lis	.	.	.	.	.	.
.	.	.	16c/JJ)	.	16e-/JJ)	.	.	.	.	.	.	.	16bn\	pec-	.	.	.	.	.	.
8AA/	6\	.	16r	.	16r	.	.	.	.	.	.	.	16cc\LL	-ca-	.	.	.	.	.	.
.	.	.	16c|</LL	.	16f#X|</LL	.	.	.	.	.	.	.	16dd\JJ	.	.	.	.	.	.	.
8r	.	.	(16B/	.	(16e-/	.	.	.	.	.	.	.	16ee-\LL	-ta	.	.	.	.	.	.
.	.	.	16c/JJ)	.	16f#/JJ)	.	.	.	.	.	.	.	16ff#X\JJ	.	.	.	.	.	.	.
=24	=24	=24	=24	=24	=24	=24	=24	=24	=24	=24	=24	=24	=24	=24	=24	=24	=24	=24	=24	=24
!	!	!	!	!LO:MO:mod=!null:null	!	!	!	!	!	!	!	!	!	!	!	!	!	!	!	!
!	!	!	!	!LO:HP:a:t=cres&colon;	!	!LO:MO:null:mod=<	!	!	!	!	!	!	!	!	!	!	!	!	!	!
8GG/L	4	.	8Bn/L	<	16g/LL	.	2r	.	2r	.	2r	.	8gg\	mun-	2r	2r	.	.	.	.
.	.	.	.	.	16d/	.	.	.	.	.	.	.	.	.	.	.	.	.	.	.
!	!	!	!	!	!	!LO:HP:a:t=cres&colon;	!	!	!	!	!	!	!	!	!	!	!	!	!	!
!	!	!	!	!	!	!LO:MO:null:mod=.	!	!	!	!	!	!	!	!	!	!	!	!	!	!
8GG/J	_	.	16A-/L	.	16c/	<	.	.	.	.	.	.	8gg\	-di	.	.	.	.	.	.
.	.	.	16G/JJ	.	16Bn/JJ	.	.	.	.	.	.	.	.	.	.	.	.	.	.	.
4r	x	.	16A-/LL	.	16c/LL	.	.	.	.	.	.	.	4r	.	.	.	.	.	.	.
.	.	.	16B/	.	16d/	.	.	.	.	.	.	.	.	.	.	.	.	.	.	.
.	.	.	16c/	.	16e-/	.	.	.	.	.	.	.	.	.	.	.	.	.	.	.
.	.	.	16A-/JJ	.	16f#X/JJ	.	.	.	.	.	.	.	.	.	.	.	.	.	.	.
!	!	!	!	!	!	!	!	!	!	!	!	!	!LO:LB:g=original	!	!	!	!	!	!	!
=25	=25	=25	=25	=25	=25	=25	=25	=25	=25	=25	=25	=25	=25	=25	=25	=25	=25	=25	=25	=25
!	!	!	!	!	!	!LO:MO:null:mod=!LO&colon;DY&colon;ed=brack	!	!	!	!	!	!	!	!	!	!	!	!	!	!
!	!	!	!	!	!	!	!	!	!	!	!	!	!	!	!	!	!	!	!	!
!LO:TX:a:i:t=Tutti:rj	!	!	!	!LO:DY:a:t=for.	!LO:SIC:v:s=(16f#/LL	!LO:MO:null:mod=f	!	!	!	!	!	!	!	!	!	!	!	!LO:DY:a:t=for	!	!LO:DY:a:t=for
8G\L	n	.	8Bn/L	f	(16f/LL	.	4G\	Do-	4G/	Do-	4bn\	Do-	4gg\	Do-	4G/	4g\	4bX\	f	4gg\	f
.	.	.	.	.	16g/J	.	.	.	.	.	.	.	.	.	.	.	.	.	.	.
8G\	.	.	8B/	.	8g/J)	.	.	.	.	.	.	.	.	.	.	.	.	.	.	.
8Bn\	6 5	.	8d/	.	16r	.	4Bn\	-na	4G/	-na	4dd\	-na	4ffn\	-na	4G/	4g\	4dd\	.	4ffnX\	.
.	.	.	.	.	(32g/LLL	.	.	.	.	.	.	.	.	.	.	.	.	.	.	.
.	.	.	.	.	32a-/J)	.	.	.	.	.	.	.	.	.	.	.	.	.	.	.
8B\J	.	.	8d/J	.	16g|</	.	.	.	.	.	.	.	.	.	.	.	.	.	.	.
.	.	.	.	.	16fn|</JJ	.	.	.	.	.	.	.	.	.	.	.	.	.	.	.
!	!	!	!	!	!	!	!	!	!	!	!LO:LB:g=original	!	!	!	!	!	!	!	!	!
=26	=26	=26	=26	=26	=26	=26	=26	=26	=26	=26	=26	=26	=26	=26	=26	=26	=26	=26	=26	=26
*	*	*	*tremolo	*	*	*	*	*	*	*	*	*	*	*	*	*	*	*	*	*
8c\L	3	.	8c/L	.	(16f/LL	.	4c\	e-	4c\	e-	4g\	e-	4ee-\	e-	4G/	4g\	2g/	.	4ee-\	.
.	.	.	.	.	16e-/J)	.	.	.	.	.	.	.	.	.	.	.	.	.	.	.
8c\	.	.	8c/	.	8e-|</J	.	.	.	.	.	.	.	.	.	.	.	.	.	.	.
8B-X\	4nr 2	.	8c/	.	16r	.	4B-X\	-is	4c\	-is	4g\	-is	4een\	-is	4G/	4g\	.	.	4eeX\	.
.	.	.	.	.	16c|</LL	.	.	.	.	.	.	.	.	.	.	.	.	.	.	.
8B-\J	_ _	.	8c/J	.	16d|</	.	.	.	.	.	.	.	.	.	.	.	.	.	.	.
.	.	.	.	.	16en|</JJ	.	.	.	.	.	.	.	.	.	.	.	.	.	.	.
=27	=27	=27	=27	=27	=27	=27	=27	=27	=27	=27	=27	=27	=27	=27	=27	=27	=27	=27	=27	=27
!	!	!	!	!	!	!	!	!	!	!	!	!	!	!	!	!	!LO:MO:mod=*null:null	!	!	!
*	*	*	*	*	*	*	*	*ij	*	*ij	*	*	*	*	*	*	*2\right	*	*	*
!	!	!	!	!	!LO:SIC:v:s=(16en/LL	!	!	!	!	!	!	!	!	!LO:MO:mod=Do-	!	!	!	!	!	!
8A-\L	6	.	8c/L	.	(16e-/LL	.	4A-\	Do-	4c\	Do-	4a-\	Do-	4ff\	D-	4f\	4f\	2cc\	.	4ff\	.
.	.	.	.	.	16f/J)	.	.	.	.	.	.	.	.	.	.	.	.	.	.	.
8A-\	.	.	8c/	.	8f|</J	.	.	.	.	.	.	.	.	.	.	.	.	.	.	.
!	!	!	!	!	!LO:LB:g=original	!	!	!	!	!	!	!	!	!	!	!	!	!	!	!
!!LO:MO:ori
=-	=-	=-	=-	=-	=-	=-	=-	=-	=-	=-	=-	=-	=-	=-	=-	=-	=-	=-	=-	=-
!!LO:MO:end
!	!	!	!	!	!	!	!	!	!	!	!LO:SIC:v:s=4f	!	!	!	!	!	!	!	!	!
8An\	5-r	.	8c/	.	16r	.	4An\	-na	4c\	-na	4g\	-na	4ee-X\	-na	4f\	4f\	.	.	4ee-X\	.
.	.	.	.	.	(32f/LLL	.	.	.	.	.	.	.	.	.	.	.	.	.	.	.
.	.	.	.	.	32g/J)	.	.	.	.	.	.	.	.	.	.	.	.	.	.	.
8A\J	.	.	8c/J	.	16f|</	.	.	.	.	.	.	.	.	.	.	.	.	.	.	.
.	.	.	.	.	16e-X|</JJ	.	.	.	.	.	.	.	.	.	.	.	.	.	.	.
=28	=28	=28	=28	=28	=28	=28	=28	=28	=28	=28	=28	=28	=28	=28	=28	=28	=28	=28	=28	=28
!	!	!	!	!	!	!	!	!	!	!	!	!	!	!	!	!	!	!	!LO:MO:mod=*null:null	!
*	*	*	*	*	*	*	*	*	*	*	*	*	*	*	*	*	*	*	*2\right	*
8B-\L	3	.	8B-X/L	.	(16e-/LL	.	4B-\	e-	4B-\	e-	4f\	e-	4dd\	e-	4B-/	4f\	2f/	.	2dd\	.
.	.	.	.	.	16d/J)	.	.	.	.	.	.	.	.	.	.	.	.	.	.	.
8B-\	_	.	8B-/	.	8d|</J	.	.	.	.	.	.	.	.	.	.	.	.	.	.	.
8A-X\	.	.	8B-/	.	16r	.	4A-X\	-is	4B-\	-is	4f\	-is	4dd\	-is	4B-/	4f\	.	.	.	.
*	*	*	*	*	*	*	*	*Xij	*	*	*	*	*	*	*	*	*	*	*	*
.	.	.	.	.	16B-/LL	.	.	.	.	.	.	.	.	.	.	.	.	.	.	.
8A-\J	x	.	8B-/J	.	16c/	.	.	.	.	.	.	.	.	.	.	.	.	.	.	.
.	.	.	.	.	16d/JJ	.	.	.	.	.	.	.	.	.	.	.	.	.	.	.
*	*	*	*Xtremolo	*	*	*	*	*	*	*	*	*	*	*	*	*	*	*	*	*
!LO:LB:g=original	!	!	!	!	!	!	!	!	!LO:LB:g=original	!	!	!	!	!	!LO:LB:g=original	!LO:LB:g=original	!	!	!	!
=29	=29	=29	=29	=29	=29	=29	=29	=29	=29	=29	=29	=29	=29	=29	=29	=29	=29	=29	=29	=29
*	*	*	*	*	*	*	*	*	*	*	*	*	*	*ij	*	*	*	*	*	*
8G\L	6	.	8B-/L	.	16d/LL	.	4G\	Do-	4B-\	Do-	4g\	Do-	4ee-\	Do-	4e-\	4g\	4b-\	.	4ee-\	.
.	.	.	.	.	16e-/J	.	.	.	.	.	.	.	.	.	.	.	.	.	.	.
8G\	.	.	8B-/	.	8e-/J	.	.	.	.	.	.	.	.	.	.	.	.	.	.	.
8A-\	6	.	8c/	.	16r	.	4A-\	-na	4c\	-na	4a-\	-na	4ff\	-na	4f\	4a-\	4cc\	.	4ff\	.
.	.	.	.	.	16f/LL	.	.	.	.	.	.	.	.	.	.	.	.	.	.	.
8A-\J	_	.	8c/J	.	16e-/	.	.	.	.	.	.	.	.	.	.	.	.	.	.	.
.	.	.	.	.	16f/JJ	.	.	.	.	.	.	.	.	.	.	.	.	.	.	.
!	!	!	!	!	!	!	!LO:LB:g=original	!	!	!	!	!	!	!	!	!	!	!	!	!
=30	=30	=30	=30	=30	=30	=30	=30	=30	=30	=30	=30	=30	=30	=30	=30	=30	=30	=30	=30	=30
8B-\L	x	.	8A-/L	.	16e-/LL	.	4B-\	e-	4A-/	e-	4f\	e-	4dd\	e-	4B-/	4f\	4a-/	.	4dd\	.
.	.	.	.	.	16d/J	.	.	.	.	.	.	.	.	.	.	.	.	.	.	.
8B-\	.	.	8A-/	.	8d/J	.	.	.	.	.	.	.	.	.	.	.	.	.	.	.
8c\	.	.	8G/	.	16r	.	4c\	-is	4G/	-is	4g\	-is	4ee-\	-is	4e-\	4g\	4g/	.	4ee-\	.
*	*	*	*	*	*	*	*	*	*	*Xij	*	*	*	*Xij	*	*	*	*	*	*
.	.	.	.	.	16e-/LL	.	.	.	.	.	.	.	.	.	.	.	.	.	.	.
8c\J	.	.	8G/J	.	16d/	.	.	.	.	.	.	.	.	.	.	.	.	.	.	.
.	.	.	.	.	16e-/JJ	.	.	.	.	.	.	.	.	.	.	.	.	.	.	.
!	!	!	!LO:LB:g=original	!	!	!	!	!	!	!	!	!	!	!	!	!	!	!	!	!
=31	=31	=31	=31	=31	=31	=31	=31	=31	=31	=31	=31	=31	=31	=31	=31	=31	=31	=31	=31	=31
!LO:TX:t=P:problem=mixed beam	!	!	!	!	!	!	!	!	!	!	!	!	!	!	!	!	!	!	!	!
8A-\L	6	.	8A-/L	.	16f/LL	.	4A-\	Re-	4c\	Re-	(>4a-\	Re-	4ff\	Re-	4f\	4a-\	4a-/	.	4ff\	.
.	.	.	.	.	16g/	.	.	.	.	.	.	.	.	.	.	.	.	.	.	.
8A-\	.	.	8c/	.	16a-/	.	.	.	.	.	.	.	.	.	.	.	.	.	.	.
.	.	.	.	.	16f/JJ	.	.	.	.	.	.	.	.	.	.	.	.	.	.	.
8B-\	4	.	8B-/	.	16f/LL	.	8B-\	-qui-	4B-\	-qui-	8g\)	.	8ee-\	-qui-	8e-\L	8g\L	8g/L	.	8ee-\L	.
.	.	.	.	.	16e-/	.	.	.	.	.	.	.	.	.	.	.	.	.	.	.
8BB-/J	3	.	8A-/J	.	16e-/	.	8B-\	.	.	.	8f\	-qui-	8dd\	.	8B-\J	8f\J	8f/J	.	8dd\J	.
.	.	.	.	.	16d/JJ	.	.	.	.	.	.	.	.	.	.	.	.	.	.	.
=32	=32	=32	=32	=32	=32	=32	=32	=32	=32	=32	=32	=32	=32	=32	=32	=32	=32	=32	=32	=32
!	!	!	!	!	!	!	!	!	!	!	!	!	!	!	!	!	!LO:MO:mod=!null:null	!	!	!
!LO:TX:a:i:t=Solo	!	!LO:DY:a:t=p.	!	!LO:DY:a:t=p.	!	!LO:DY:a:t=p&colon;	!	!	!	!	!	!	!	!	!	!	!LO:TX:a:i:t=Solo	!	!	!
4E-\	.	p	16G/LL	p	(16e-/LL	p	4E-\	-em	4B-\	-em	4g\	-em	4ee-\	-em	4G/	4e-\	8g/	.	8ee-\	.
.	.	.	16g/	.	16b-/)	.	.	.	.	.	.	.	.	.	.	.	.	.	.	.
!	!	!	!	!	!	!	!	!	!	!	!	!	!	!	!	!	!LO:MO:null:mod=!LO&colon;TX&colon;i&colon;t=Solo	!	!	!
!	!	!	!	!	!	!	!	!	!	!	!	!	!	!	!	!	!	!	!LO:TX:a:i:t=Solo	!
.	.	.	(16e-/	.	(16g/	.	.	.	.	.	.	.	.	.	.	.	16r	.	16r	.
!	!	!	!	!	!	!	!	!	!	!	!	!	!	!	!	!	!LO:SIC:s=16ee-	!	!	!
.	.	.	16g/JJ)	.	16b-/JJ)	.	.	.	.	.	.	.	.	.	.	.	16ee-|>\	.	16gg\	.
4r	.	.	(16e-/LL	.	(16g/LL	.	4r	.	4r	.	4r	.	4r	.	4r	4r	(8gg\L	.	(8bb-\L	.
.	.	.	16g/)	.	16b-/)	.	.	.	.	.	.	.	.	.	.	.	.	.	.	.
.	.	.	(16e-/	.	(16g/	.	.	.	.	.	.	.	.	.	.	.	16ee-\Jk)	.	16gg\Jk)	.
.	.	.	16g/JJ)	.	16b-/JJ)	.	.	.	.	.	.	.	.	.	.	.	16r	.	16r	.
!	!	!	!	!	!LO:LB:g=original	!	!	!	!	!	!	!	!	!	!	!	!LO:LB:g=original	!	!LO:LB:g=original	!
=33	=33	=33	=33	=33	=33	=33	=33	=33	=33	=33	=33	=33	=33	=33	=33	=33	=33	=33	=33	=33
8r	.	.	(16d/LL	.	(16f/LL	.	2r	.	2r	.	2r	.	2r	.	2r	2r	(8ff\L	.	(8aa-\L	.
.	.	.	16f/)	.	16a-/)	.	.	.	.	.	.	.	.	.	.	.	.	.	.	.
!LO:TX:t=P:problem=mixed beam	!	!	!	!	!	!	!	!	!	!	!	!	!	!	!	!	!	!	!	!
8BB-/L	.	.	(16d/	.	(16f/	.	.	.	.	.	.	.	.	.	.	.	16dd\Jk)	.	16ff\Jk)	.
.	.	.	16f/JJ)	.	16a-/JJ)	.	.	.	.	.	.	.	.	.	.	.	16r	.	16r	.
8B-\	.	.	(16d/LL	.	(16f/LL	.	.	.	.	.	.	.	.	.	.	.	(16gg\LL	.	(16bb-\LL	.
.	.	.	16f/)	.	16a-/)	.	.	.	.	.	.	.	.	.	.	.	32ff\JJk)	.	32aa-\JJk)	.
.	.	.	.	.	.	.	.	.	.	.	.	.	.	.	.	.	32r	.	32r	.
8BB-/J	.	.	(16d/	.	(16f/	.	.	.	.	.	.	.	.	.	.	.	(16ee-\LL	.	(16gg\LL	.
.	.	.	16f/JJ)	.	16a-/JJ)	.	.	.	.	.	.	.	.	.	.	.	32dd\JJk)	.	32ff\JJk)	.
.	.	.	.	.	.	.	.	.	.	.	.	.	.	.	.	.	32r	.	32r	.
!!LO:MO:ori
=	=	=	=	=	=	=	=	=	=	=	=	=	=	=	=	=	=	=	=	=
!LO:TX:t=P:problem=niepotrzebnie powtórzony takt w vl 2	!	!	!LO:TX:t=P:problem=niepotrzebnie powtórzony takt	!	!LO:TX:t=P:problem=niepotrzebnie powtórzony takt w vl 2	!	!LO:TX:t=P:problem=niepotrzebnie powtórzony takt w vl 2	!	!LO:TX:t=P:problem=niepotrzebnie powtórzony takt w vl 2	!	!LO:TX:t=P:problem=niepotrzebnie powtórzony takt w vl 2	!	!LO:TX:t=P:problem=niepotrzebnie powtórzony takt w vl 2	!	!LO:TX:t=P:problem=niepotrzebnie powtórzony takt w vl 2	!LO:TX:t=P:problem=niepotrzebnie powtórzony takt w vl 2	!LO:TX:t=P:problem=niepotrzebnie powtórzony takt w vl 2	!	!LO:TX:t=P:problem=niepotrzebnie powtórzony takt w vl 2	!
2ryy	.	.	(16d/LL	.	2ryy	.	2ryy	.	2ryy	.	2ryy	.	2ryy	.	2ryy	2ryy	2ryy	.	2ryy	.
.	.	.	16f/)	.	.	.	.	.	.	.	.	.	.	.	.	.	.	.	.	.
.	.	.	(16d/	.	.	.	.	.	.	.	.	.	.	.	.	.	.	.	.	.
.	.	.	16f/JJ)	.	.	.	.	.	.	.	.	.	.	.	.	.	.	.	.	.
.	.	.	(16d/LL	.	.	.	.	.	.	.	.	.	.	.	.	.	.	.	.	.
.	.	.	16f/)	.	.	.	.	.	.	.	.	.	.	.	.	.	.	.	.	.
.	.	.	(16d/	.	.	.	.	.	.	.	.	.	.	.	.	.	.	.	.	.
.	.	.	16f/JJ)	.	.	.	.	.	.	.	.	.	.	.	.	.	.	.	.	.
!!LO:MO:end
=34	=34	=34	=34	=34	=34	=34	=34	=34	=34	=34	=34	=34	=34	=34	=34	=34	=34	=34	=34	=34
8r	.	.	(16e-/LL	.	(16g/LL	.	2r	.	2r	.	2r	.	2r	.	2r	2r	(8.ee-\L	.	(8.gg\L	.
.	.	.	16g/)	.	16b-/)	.	.	.	.	.	.	.	.	.	.	.	.	.	.	.
!LO:TX:t=P:problem=mixed beam	!	!	!	!	!	!	!	!	!	!	!	!	!	!	!	!	!	!	!	!
8E-\L	.	.	(16e-/	.	(16g/	.	.	.	.	.	.	.	.	.	.	.	.	.	.	.
.	.	.	16g/JJ)	.	16b-/JJ)	.	.	.	.	.	.	.	.	.	.	.	16gg\Jk)	.	16bb-\Jk)	.
!	!	!	!	!	!	!	!	!	!	!	!	!	!	!	!	!	!LO:SIC:s=8g'	!	!	!
8EE-/	.	.	(16e-/LL	.	(16g/LL	.	.	.	.	.	.	.	.	.	.	.	8g|</	.	8ee-'\	.
.	.	.	16g/)	.	16b-/)	.	.	.	.	.	.	.	.	.	.	.	.	.	.	.
8E-\J	.	.	(16e-/	.	(16g/	.	.	.	.	.	.	.	.	.	.	.	16r	.	16r	.
.	.	.	16g/JJ)	.	16b-/JJ)	.	.	.	.	.	.	.	.	.	.	.	16b-\	.	16gg\	.
=35	=35	=35	=35	=35	=35	=35	=35	=35	=35	=35	=35	=35	=35	=35	=35	=35	=35	=35	=35	=35
8r	.	.	(16a-/LL	.	(16cc/LL	.	2r	.	2r	.	2r	.	2r	.	2r	2r	(8cc\L	.	(8aa-\L	.
.	.	.	16f/)	.	16a-/)	.	.	.	.	.	.	.	.	.	.	.	.	.	.	.
!LO:TX:t=P:problem=mixed beam	!	!	!	!	!	!	!	!	!	!	!	!	!	!	!	!	!	!	!	!
8A-\L	6	.	(16a-/	.	(16cc/	.	.	.	.	.	.	.	.	.	.	.	16a-\Jk)	.	16ff\Jk)	.
.	.	.	16f/JJ)	.	16a-/JJ)	.	.	.	.	.	.	.	.	.	.	.	16r	.	16r	.
8B-\	4	.	8e-/L	.	8g/L	.	.	.	.	.	.	.	.	.	.	.	(16a-/LL	.	(16ff\LL	.
.	.	.	.	.	.	.	.	.	.	.	.	.	.	.	.	.	32g/JJk)	.	32ee-\JJk)	.
.	.	.	.	.	.	.	.	.	.	.	.	.	.	.	.	.	32r	.	32r	.
8BB-/J	3	.	8d/J	.	8f/J	.	.	.	.	.	.	.	.	.	.	.	(16g/LL	.	(16ee-\LL	.
.	.	.	.	.	.	.	.	.	.	.	.	.	.	.	.	.	32f/JJk)	.	32dd\JJk)	.
.	.	.	.	.	.	.	.	.	.	.	.	.	.	.	.	.	32r	.	32r	.
=36	=36	=36	=36	=36	=36	=36	=36	=36	=36	=36	=36	=36	=36	=36	=36	=36	=36	=36	=36	=36
!	!	!LO:DY:t=poco %s	!	!LO:DY:t=poco %s	!	!LO:DY:t=poco %s	!	!	!	!	!	!	!	!	!	!	!	!	!	!
8E-\	.	f	16e-|</LL	f	16g|</LL	f	4E-\	A-	4B-\	A-	4g\	A-	4ee-\	A-	4e-\	4g\	8g/	.	8ee-\	.
.	.	.	16g|</	.	16b-|</	.	.	.	.	.	.	.	.	.	.	.	.	.	.	.
8r	.	.	(16f/	.	(16a-/	.	.	.	.	.	.	.	.	.	.	.	4ee-\	.	4gg\	.
.	.	.	16e-/JJ)	.	16g/JJ)	.	.	.	.	.	.	.	.	.	.	.	.	.	.	.
!	!	!	!LO:LB:g=original	!	!	!	!	!	!	!	!	!	!	!	!	!	!	!	!	!
!!LO:MO:ori
=-	=-	=-	=-	=-	=-	=-	=-	=-	=-	=-	=-	=-	=-	=-	=-	=-	=-	=-	=-	=-
!!LO:MO:end
!	!	!LO:DY:a:t=f.	!	!	!	!	!	!	!	!	!	!	!	!	!	!	!	!	!	!
!	!	!LO:MO:null:mod=.	!	!	!	!	!	!	!	!	!	!	!	!	!	!	!	!	!	!
8E-\	.	f	16r	.	16r	.	4E-\	-gnus	4B-\	-gnus	4g\	-gnus	4ee-\	-gnus	4e-\	4g\	.	.	.	.
.	.	.	16g|</LL	.	16b-|</LL	.	.	.	.	.	.	.	.	.	.	.	.	.	.	.
8r	.	.	(16f/	.	(16a-/	.	.	.	.	.	.	.	.	.	.	.	16ff\LL	.	16aa-\LL	.
.	.	.	16e-/JJ)	.	16g/JJ)	.	.	.	.	.	.	.	.	.	.	.	16gg\JJ	.	16bb-\JJ	.
!	!	!	!	!	!	!	!	!	!	!	!	!	!LO:LB:g=original	!	!	!	!	!	!	!
=37	=37	=37	=37	=37	=37	=37	=37	=37	=37	=37	=37	=37	=37	=37	=37	=37	=37	=37	=37	=37
8A-\	6	.	16r	.	16r	.	4A-\	De-	4c\	De-	4a-\	De-	4ff\	De-	4f\	4a-\	16aa-\LL	.	16ccc\LL	.
.	.	.	16a-|</LL	.	16cc|</LL	.	.	.	.	.	.	.	.	.	.	.	16ff\J	.	16aa-\J	.
!	!	!	!	!	!	!LO:MO:null:mod=.	!	!	!	!	!	!	!	!	!	!	!	!	!	!
8r	.	.	(16g/	.	(16b-/	f	.	.	.	.	.	.	.	.	.	.	8ff\J	.	8aa-\J	.
.	.	.	16f/JJ)	.	16a-/JJ)	.	.	.	.	.	.	.	.	.	.	.	.	.	.	.
8A-\	.	.	16r	.	16r	.	8A-\	-i	8c\	-i	8a-\	-i	8ff\	-i	4f\	4a-\	8r	.	8r	.
.	.	.	16a-|</LL	.	16cc|</LL	.	.	.	.	.	.	.	.	.	.	.	.	.	.	.
8r	.	.	(16g/	.	(16b-/	.	8A-\	qui	8c\	qui	8a-\	qui	8ff\	qui	.	.	8ff\	.	8aa-\	.
.	.	.	16f/JJ)	.	16a-/JJ)	.	.	.	.	.	.	.	.	.	.	.	.	.	.	.
!	!	!	!	!	!	!	!	!	!	!	!LO:LB:g=original	!	!	!	!	!	!LO:LB:g=original	!	!LO:LB:g=original	!
=38	=38	=38	=38	=38	=38	=38	=38	=38	=38	=38	=38	=38	=38	=38	=38	=38	=38	=38	=38	=38
.	.	.	.	.	.	.	.	.	.	.	.	.	.	.	.	.	.	.	16qqgg/	.
8B-\	.	.	16r	.	16r	.	4B-\	tol-	4B-\	tol-	4f\	tol-	4dd\	tol-	4B-/	4f\	8dd\	.	8ff\	.
.	.	.	16f|</LL	.	16a-|</LL	.	.	.	.	.	.	.	.	.	.	.	.	.	.	.
8r	.	.	(16e-/	.	(16g/	.	.	.	.	.	.	.	.	.	.	.	4dd\	.	4ff\	.
.	.	.	16d/JJ)	.	16f/JJ)	.	.	.	.	.	.	.	.	.	.	.	.	.	.	.
!	!	!	!	!	!LO:LB:g=original	!	!	!	!	!	!	!	!	!	!	!	!	!	!	!
!!LO:MO:ori
=-	=-	=-	=-	=-	=-	=-	=-	=-	=-	=-	=-	=-	=-	=-	=-	=-	=-	=-	=-	=-
!!LO:MO:end
8B-\	.	.	16r	.	16r	.	8B-\	-lis	8B-\	-lis	8f\	-lis	8dd\	-lis	4B-/	4f\	.	.	.	.
.	.	.	16f|</LL	.	16a-|</LL	.	.	.	.	.	.	.	.	.	.	.	.	.	.	.
8r	.	.	(16e-/	.	(16g/	.	8B-\	pec-	8B-\	pec-	8f\	pec-	8dd\	pec-	.	.	16ee-\LL	.	16gg\LL	.
.	.	.	16d/JJ)	.	16f/JJ)	.	.	.	.	.	.	.	.	.	.	.	16ff\JJ	.	16aa-\JJ	.
!LO:LB:g=original	!	!	!	!	!	!	!	!	!	!	!	!	!	!	!	!	!	!	!	!
=39	=39	=39	=39	=39	=39	=39	=39	=39	=39	=39	=39	=39	=39	=39	=39	=39	=39	=39	=39	=39
8E-\	.	.	16r	.	16r	.	4E-\	-ca-	4B-\	-ca-	4g\	-ca-	4ee-\	-ca-	4G/	4e-\	16gg\LL	.	16bb-\LL	.
.	.	.	16g|</LL	.	16b-|</LL	.	.	.	.	.	.	.	.	.	.	.	16ee-\J	.	16gg\J	.
8r	.	.	(16f/	.	(16a-/	.	.	.	.	.	.	.	.	.	.	.	8ee-\J	.	8gg\J	.
.	.	.	16e-/JJ)	.	16g/JJ)	.	.	.	.	.	.	.	.	.	.	.	.	.	.	.
8E-\	.	.	16r	.	16r	.	8E-\	-ta	8B-\	-ta	8g\	-ta	8ee-\	-ta	4G/	4e-\	8r	.	8r	.
.	.	.	16g|</LL	.	16b-|</LL	.	.	.	.	.	.	.	.	.	.	.	.	.	.	.
8r	.	.	(16f/	.	(16a-/	.	8E-\	qui	8B-\	qui	8g\	qui	8ee-\	qui	.	.	16ff\LL	.	16aa-\LL	.
.	.	.	16e-/JJ)	.	16g/JJ)	.	.	.	.	.	.	.	.	.	.	.	16ee-\JJ	.	16gg\JJ	.
=40	=40	=40	=40	=40	=40	=40	=40	=40	=40	=40	=40	=40	=40	=40	=40	=40	=40	=40	=40	=40
.	.	.	.	.	.	.	.	.	.	.	.	.	.	.	.	.	16qqee-/	.	16qqgg/	.
8BB-/	.	.	16r	.	16r	.	4B-\	tol-	4B-\	tol-	4f\	tol-	4dd\	tol-	4B-/	4f\	8dd\	.	8ff\	.
.	.	.	16f|</LL	.	16a-|</LL	.	.	.	.	.	.	.	.	.	.	.	.	.	.	.
8r	.	.	(16e-/	.	(16g/	.	.	.	.	.	.	.	.	.	.	.	4dd\	.	4ff\	.
.	.	.	16d/JJ)	.	16f/JJ)	.	.	.	.	.	.	.	.	.	.	.	.	.	.	.
8BB-/	.	.	16r	.	16r	.	8B-\	-lis	8B-\	-lis	8f\	-lis	8dd\	-lis	4B-/	4f\	.	.	.	.
.	.	.	16f|</LL	.	16a-|</LL	.	.	.	.	.	.	.	.	.	.	.	.	.	.	.
*	*	*	*	*	*	*	*	*	*	*ij	*	*	*	*	*	*	*	*	*	*
8r	.	.	(16e-/	.	(16g/	.	8B-\	qui	8B-\	qui	8f\	qui	8dd\	qui	.	.	16gg\LL	.	16bb-\LL	.
.	.	.	16d/JJ)	.	16f/JJ)	.	.	.	.	.	.	.	.	.	.	.	16ff\JJ	.	16aa-\JJ	.
=41	=41	=41	=41	=41	=41	=41	=41	=41	=41	=41	=41	=41	=41	=41	=41	=41	=41	=41	=41	=41
.	.	.	.	.	.	.	.	.	.	.	.	.	.	.	.	.	16qqff/	.	16qqaa-/	.
8E-\	.	.	16r	.	16r	.	4E-\	tol-	4B-\	tol-	4g\	tol-	4ee-\	tol-	4e-\	4g\	8ee-\	.	8gg\	.
.	.	.	16g|</LL	.	16b-|</LL	.	.	.	.	.	.	.	.	.	.	.	.	.	.	.
8r	.	.	(16f/	.	(16a-/	.	.	.	.	.	.	.	.	.	.	.	4ee-\	.	4gg\	.
!	!	!	!LO:SIC:s=16gJJ)	!	!LO:SIC:s=16b-)JJ	!	!	!	!	!	!	!	!	!	!	!	!	!	!	!
.	.	.	16g|</JJ	.	16b-|</JJ	.	.	.	.	.	.	.	.	.	.	.	.	.	.	.
8E-\	.	.	16r	.	16r	.	8E-\	-lis	8B-\	-lis	8g\	-lis	8ee-\	-lis	4e-\	4g\	.	.	.	.
*	*	*	*	*	*	*	*	*	*	*Xij	*	*	*	*	*	*	*	*	*	*
.	.	.	16g|</LL	.	16b-|</LL	.	.	.	.	.	.	.	.	.	.	.	.	.	.	.
!	!	!	!	!	!	!	!	!	!LO:LB:g=original	!	!	!	!	!	!	!	!	!	!	!
!!LO:MO:ori
=-	=-	=-	=-	=-	=-	=-	=-	=-	=-	=-	=-	=-	=-	=-	=-	=-	=-	=-	=-	=-
!!LO:MO:end
8r	.	.	(16f/	.	(16a-/	.	8E-\	pec-	8B-\	pec-	8g\	pec-	8ee-\	pec-	.	.	16ff\LL	.	16aa-\LL	.
.	.	.	16e-/JJ)	.	16g/JJ)	.	.	.	.	.	.	.	.	.	.	.	16gg\JJ	.	16bb-\JJ	.
!	!	!	!LO:LB:g=original	!	!	!	!LO:LB:g=original	!	!	!	!	!	!	!	!	!	!	!	!	!
=42	=42	=42	=42	=42	=42	=42	=42	=42	=42	=42	=42	=42	=42	=42	=42	=42	=42	=42	=42	=42
!LO:TX:t=P:problem=mixed beam	!	!	!	!	!	!	!	!	!	!	!	!	!	!	!	!	!	!	!	!
8A-\L	6	.	16r	.	16r	.	8A-\	-ca-	8c\	-ca-	8a-\	-ca-	8ff\	-ca-	4f\	4a-\	8.aa-\L	.	(8.ccc\L	.
.	.	.	16f|</LL	.	16a-|</LL	.	.	.	.	.	.	.	.	.	.	.	.	.	.	.
8A-\	.	.	(16a-/	.	(16cc/	.	8A-\	-ta	8c\	-ta	8a-\	-ta	8ff\	-ta	.	.	.	.	.	.
.	.	.	16f/JJ)	.	16a-/JJ)	.	.	.	.	.	.	.	.	.	.	.	16ff\Jk	.	16aa-\Jk)	.
8B-\	4	.	8e-/L	.	8g/L	.	4B-\	mun-	4B-\	mun-	8g\L	mun-	8ee-\L	mun-	8e-\L	8g\L	16ff\LL	.	16aa-\LL	.
.	.	.	.	.	.	.	.	.	.	.	.	.	.	.	.	.	16ee-\	.	16gg\	.
8BB-/J	3	.	8d/J	.	8f/J	.	.	.	.	.	8f\J	.	8dd\J	.	8B-\J	8f\J	16ee-\	.	16gg\	.
.	.	.	.	.	.	.	.	.	.	.	.	.	.	.	.	.	16dd\JJ	.	16ff\JJ	.
!	!	!	!	!	!	!	!	!	!	!	!	!	!	!	!LO:LB:g=original	!LO:LB:g=original	!	!	!	!
=43	=43	=43	=43	=43	=43	=43	=43	=43	=43	=43	=43	=43	=43	=43	=43	=43	=43	=43	=43	=43
!	!	!LO:MO:null:mod=!LO&colon;DY&colon;ed=brack	!	!	!	!LO:MO:null:mod=!LO&colon;DY&colon;ed=brack	!	!	!	!	!	!	!	!	!	!	!	!	!	!
!	!	!	!	!	!	!	!	!	!	!	!	!	!	!	!	!	!	!	!	!
!	!	!LO:MO:null:mod=f	!LO:SIC:s=(16dLL	!LO:DY:a:t=for	!LO:SIC:s=(16fLL	!LO:MO:null:mod=f	!	!	!	!	!	!	!	!	!	!	!	!	!	!
8E-\L	.	.	16d/LL	f	16f/LL	.	4E-\	-di	4B-\	-di	4g\	-di	4ee-\	-di	4G/	4e-\	4ee-\	.	4gg\	.
!	!	!	!LO:SIC:s=16e-J)	!	!LO:SIC:s=16gJ)	!	!	!	!	!	!	!	!	!	!	!	!	!	!	!
.	.	.	16e-/J	.	16g/J	.	.	.	.	.	.	.	.	.	.	.	.	.	.	.
!	!	!	!LO:SIC:s=8e-J|	!	!LO:SIC:s=8gJ|	!	!	!	!	!	!	!	!	!	!	!	!	!	!	!
8e-\	.	.	8e-/J	.	8g/J	.	.	.	.	.	.	.	.	.	.	.	.	.	.	.
.	.	.	.	.	.	.	.	.	.	.	.	.	.	.	.	.	.	.	.	.
!	!	!	!	!	!LO:LB:g=original	!	!	!	!	!	!	!	!LO:LB:g=original	!	!	!	!	!	!	!
!!LO:MO:ori
=-	=-	=-	=-	=-	=-	=-	=-	=-	=-	=-	=-	=-	=-	=-	=-	=-	=-	=-	=-	=-
!!LO:MO:end
8e-\	.	.	16r	.	16r	.	8E-\	Do-	8B-\	Do-	8g\	Do-	8ee-\	Do-	4e-\	4g\	4ee-\	.	4gg\	.
!	!	!	!LO:SIC:s=16gLL|	!	!	!	!	!	!	!	!	!	!	!	!	!	!	!	!	!
.	.	.	16g/LL	.	16b-|</LL	.	.	.	.	.	.	.	.	.	.	.	.	.	.	.
!	!	!	!LO:SIC:s=16f(	!	!	!	!	!	!	!	!	!	!	!	!	!	!	!	!	!
8e-\J	.	.	16f/	.	(16a-/	.	8E-\	-na	8B-\	-na	8g\	-na	8ee-\	-na	.	.	.	.	.	.
!	!	!	!LO:SIC:s=16e-JJ)	!	!	!	!	!	!	!	!	!	!	!	!	!	!	!	!	!
.	.	.	16e-/JJ	.	16g/JJ)	.	.	.	.	.	.	.	.	.	.	.	.	.	.	.
=44	=44	=44	=44	=44	=44	=44	=44	=44	=44	=44	=44	=44	=44	=44	=44	=44	=44	=44	=44	=44
*tremolo	*	*	*	*	*	*	*	*	*	*	*	*	*	*	*	*	*	*	*	*
!	!	!	!LO:SIC:s=16dLL(	!	!LO:SIC:s=(16fLL	!	!	!	!	!	!	!	!	!	!	!	!	!	!	!
8c\L	.	.	16d/LL	.	16f/LL	.	4c\	e-	4c\	e-	4g\	e-	4ee-\	e-	4e-\	4g\	4ee-\	.	4gg\	.
!	!	!	!LO:SIC:s=16e-J)	!	!LO:SIC:s=16gJ)	!	!	!	!	!	!	!	!	!	!	!	!	!	!	!
.	.	.	16e-/J	.	16g/J	.	.	.	.	.	.	.	.	.	.	.	.	.	.	.
!	!	!	!LO:SIC:s=8e-J|	!	!LO:SIC:s=8gJ|	!	!	!	!	!	!	!	!	!	!	!	!	!	!	!
8c\	.	.	8e-/J	.	8g/J	.	.	.	.	.	.	.	.	.	.	.	.	.	.	.
8c\	.	.	16r	.	16r	.	4c\	-is	4c\	-is	4g\	-is	4ee-\	-is	4e-\	4g\	4ee-\	.	4gg\	.
!	!	!	!LO:SIC:s=16e-LL|	!	!	!	!	!	!	!	!	!	!	!	!	!	!	!	!	!
.	.	.	16e-/LL	.	16g|</LL	.	.	.	.	.	.	.	.	.	.	.	.	.	.	.
!	!	!	!LO:SIC:s=16d(	!	!LO:SIC:s=(16f	!	!	!	!	!	!	!	!	!	!	!	!	!	!	!
8c\J	.	.	16d/	.	16f/	.	.	.	.	.	.	.	.	.	.	.	.	.	.	.
!	!	!	!LO:SIC:s=16e-JJ)	!	!LO:SIC:s=16gJJ)	!	!	!	!	!	!	!	!	!	!	!	!	!	!	!
.	.	.	16e-/JJ	.	16g/JJ	.	.	.	.	.	.	.	.	.	.	.	.	.	.	.
!	!	!	!	!	!	!	!	!	!	!	!LO:LB:g=original	!	!	!	!	!	!LO:LB:g=original	!	!LO:LB:g=original	!
=45	=45	=45	=45	=45	=45	=45	=45	=45	=45	=45	=45	=45	=45	=45	=45	=45	=45	=45	=45	=45
*	*	*	*	*	*	*	*	*ij	*	*ij	*	*	*	*ij	*	*	*	*	*	*
!	!	!	!LO:SIC:s=(16e-LL	!	!	!	!	!	!	!	!	!	!	!	!	!	!	!	!	!
8A-\L	6	.	16e-/LL	.	(16g/LL	.	4A-\	e-	4c\	e-	4a-\	e-	4ff\	e-	4f\	4a-\	4ff\	.	4aa-\	.
!	!	!	!LO:SIC:s=16fJ)	!	!	!	!	!	!	!	!	!	!	!	!	!	!	!	!	!
.	.	.	16f/J	.	16a-/J)	.	.	.	.	.	.	.	.	.	.	.	.	.	.	.
!	!	!	!LO:SIC:s=8fJ|	!	!	!	!	!	!	!	!	!	!	!	!	!	!	!	!	!
8A-\	.	.	8f/J	.	8a-|</J	.	.	.	.	.	.	.	.	.	.	.	.	.	.	.
8A-\	.	.	16r	.	16r	.	4A-\	-is	4c\	-is	4a-\	-is	4ff\	-is	4f\	4a-\	4ff\	.	4aa-\	.
*	*	*	*	*	*	*	*	*Xij	*	*Xij	*	*	*	*Xij	*	*	*	*	*	*
!	!	!	!LO:SIC:s=16a-LL|	!	!	!	!	!	!	!	!	!	!	!	!	!	!	!	!	!
.	.	.	16a-/LL	.	16cc|</LL	.	.	.	.	.	.	.	.	.	.	.	.	.	.	.
!	!	!	!LO:SIC:s=16g(	!	!	!	!	!	!	!	!	!	!	!	!	!	!	!	!	!
8A-\J	.	.	16g/	.	(16b-/	.	.	.	.	.	.	.	.	.	.	.	.	.	.	.
!	!	!	!LO:SIC:s=16fJJ)	!	!	!	!	!	!	!	!	!	!	!	!	!	!	!	!	!
.	.	.	16f/JJ	.	16a-/JJ)	.	.	.	.	.	.	.	.	.	.	.	.	.	.	.
*Xtremolo	*	*	*	*	*	*	*	*	*	*	*	*	*	*	*	*	*	*	*	*
=46	=46	=46	=46	=46	=46	=46	=46	=46	=46	=46	=46	=46	=46	=46	=46	=46	=46	=46	=46	=46
!LO:TX:t=P:problem=mixed beam	!	!	!	!	!	!	!	!	!	!	!	!	!	!LO:MO:mod=Re-	!	!	!	!	!	!
8B-\L	4	.	16f/LL	.	16a-/LL	.	4B-\	Re-	4B-\	Re-	4g\	Re-	4ee-\	re-	4e-\	4g\	4ee-\	.	4gg\	.
.	.	.	16e-/	.	16g/	.	.	.	.	.	.	.	.	.	.	.	.	.	.	.
8B-\	.	.	16e-/	.	16g/	.	.	.	.	.	.	.	.	.	.	.	.	.	.	.
.	.	.	16g/JJ	.	16b-/JJ	.	.	.	.	.	.	.	.	.	.	.	.	.	.	.
8BB-/	3	.	16g/LL	.	16b-/LL	.	4BB-/	-qui-	4B-\	-qui-	4f\	-qui-	4dd\	-qui-	4B-/	4f\	4dd\	.	4ff\	.
.	.	.	16f/	.	16a-/	.	.	.	.	.	.	.	.	.	.	.	.	.	.	.
8BB-/J	.	.	16e-/	.	16g/	.	.	.	.	.	.	.	.	.	.	.	.	.	.	.
.	.	.	16d/JJ	.	16f/JJ	.	.	.	.	.	.	.	.	.	.	.	.	.	.	.
=47	=47	=47	=47	=47	=47	=47	=47	=47	=47	=47	=47	=47	=47	=47	=47	=47	=47	=47	=47	=47
16E-\LL	.	.	4e-/	.	4g/	.	4E-\	-em	4B-\	-em	4g\	-em	4ee-\	-em	4G/	4e-\	4ee-\	.	4gg\	.
16E-\	.	.	.	.	.	.	.	.	.	.	.	.	.	.	.	.	.	.	.	.
16E-\	.	.	.	.	.	.	.	.	.	.	.	.	.	.	.	.	.	.	.	.
16E-\JJ	.	.	.	.	.	.	.	.	.	.	.	.	.	.	.	.	.	.	.	.
*tremolo	*	*	*	*	*	*	*	*	*	*	*	*	*	*	*	*	*	*	*	*
16E-\LL	.	.	4r	.	4r	.	8E-\	ſem-	8e-\	ſem-	8g\	ſem-	8b-\	ſem-	4E-/	4e-\	4g/	.	4b-\	.
16E-\	.	.	.	.	.	.	.	.	.	.	.	.	.	.	.	.	.	.	.	.
16E-\	.	.	.	.	.	.	8E-\	-pie-	8e-\	-pi-	8g\	-pi-	8b-\	-pi-	.	.	.	.	.	.
16E-\JJ	.	.	.	.	.	.	.	.	.	.	.	.	.	.	.	.	.	.	.	.
=48	=48	=48	=48	=48	=48	=48	=48	=48	=48	=48	=48	=48	=48	=48	=48	=48	=48	=48	=48	=48
!	!	!	!	!	!	!	!LO:MO:mod=*null:null	!	!	!	!	!	!	!	!	!	!	!	!	!
*	*	*	*	*	*	*	*2\right	*	*	*	*	*	*	*	*	*	*	*	*	*
16E-\LL	6 4	.	2r	.	2r	.	2E-\	-ter-	2e-\	-ter-	4a-\	-ter-	4cc\	-ter-	4E-/	4e-\	4a-/	.	4cc\	.
16E-\	.	.	.	.	.	.	.	.	.	.	.	.	.	.	.	.	.	.	.	.
16E-\	.	.	.	.	.	.	.	.	.	.	.	.	.	.	.	.	.	.	.	.
16E-\JJ	.	.	.	.	.	.	.	.	.	.	.	.	.	.	.	.	.	.	.	.
16E-\LL	7 2	.	.	.	.	.	.	.	.	.	4f\	.	4dd\	.	4E-/	4e-\	4f/	.	4dd\	.
16E-\	.	.	.	.	.	.	.	.	.	.	.	.	.	.	.	.	.	.	.	.
16E-\	.	.	.	.	.	.	.	.	.	.	.	.	.	.	.	.	.	.	.	.
16E-\JJ	.	.	.	.	.	.	.	.	.	.	.	.	.	.	.	.	.	.	.	.
*Xtremolo	*	*	*	*	*	*	*	*	*	*	*	*	*	*	*	*	*	*	*	*
!LO:LB:g=original	!	!	!	!	!	!	!	!	!	!	!	!	!	!	!	!	!	!	!	!
=49	=49	=49	=49	=49	=49	=49	=49	=49	=49	=49	=49	=49	=49	=49	=49	=49	=49	=49	=49	=49
8E-\L	3_	.	2r	.	2r	.	4E-\	-nam	4e-\	-nam	4g\	-nam	4ee-\	-nam	8E-/L	8e-\L	8g/L	.	8ee-\L	.
8E-\J	.	.	.	.	.	.	.	.	.	.	.	.	.	.	8E-/J	8e-\J	8g/J	.	8ee-\J	.
4E-\	x	.	.	.	.	.	4r	.	4r	.	4r	.	4r	.	4E-/	4e-\	4g/	.	4ee-\	.
!LO:LB:g=original	!	!	!	!	!LO:LB:g=original	!	!LO:LB:g=original	!	!LO:LB:g=original	!	!LO:LB:g=original	!	!LO:LB:g=original	!	!LO:LB:g=original	!LO:LB:g=original	!LO:LB:g=original	!	!LO:LB:g=original	!
==	==	==	==	==	==	==	==	==	==	==	==	==	==	==	==	==	==	==	==	==
*-	*-	*-	*-	*-	*-	*-	*-	*-	*-	*-	*-	*-	*-	*-	*-	*-	*-	*-	*-	*-
!!!system-decoration: [(s1,s2)][(s3,s4)][(s5,s6,s7,s8)][(s9,s10)]s11
!!!RDF**kern: < = below
!!!RDF**kern: > = above
!!!RDF**kern: | = vertical stroke
!!!filter-modern: sic -sq | shed -e "s/:TX:t=P:/:tx:t=p:/L" | shed -e "s/:rj/:RJ/L" | modori -m | shed -e "s/LO:DY:(a|b|rj)/LO:dy:$1/L" | autostem -r | tie -s | shed -k -e "s/[<>]//g" | humtr -p
!!!ENC: Andrzej Gręziak
!!!END: 2021-12-02
!!!ENC: Marta Chmielewska
!!!END: 2021-12-16
!!!ENC-modern: Andrzej Borzym
!!!END-modern: 2022-06-21
!!!YEC: Copyright 2022 Narodowy Instytut Fryderyka Chopina (https://polishscores.org)
!!!YEM: License CC-BY-4.0 (https://creativecommons.org/licenses/by/4.0)
